build/assets/images/svg/icons/lk/personal_account/tel.svg

<svg width="48" height="48" viewBox="0 0 48 48" fill="none" xmlns="http://www.w3.org/2000/svg">
<rect width="48" height="48" rx="24" fill="#F4F7FB"/>
<path fill-rule="evenodd" clip-rule="evenodd" d="M27 13.5C29.2091 13.5 31 15.2909 31 17.5V30.5C31 32.7091 29.2091 34.5 27 34.5H21C18.7909 34.5 17 32.7091 17 30.5V17.5C17 15.2909 18.7909 13.5 21 13.5H27ZM19 17.5C19 16.3954 19.8954 15.5 21 15.5H21.5854C21.7913 16.0826 22.3469 16.5 23 16.5H25C25.6531 16.5 26.2087 16.0826 26.4146 15.5H27C28.1046 15.5 29 16.3954 29 17.5V30.5C29 31.6046 28.1046 32.5 27 32.5H21C19.8954 32.5 19 31.6046 19 30.5V17.5Z" fill="#203686"/>
</svg>

<svg width="48" height="48" fill="none" xmlns="http://www.w3.org/2000/svg"><rect width="48" height="48" rx="24" fill="#F4F7FB"/><path fill-rule="evenodd" clip-rule="evenodd" d="M27 13.5a4 4 0 014 4v13a4 4 0 01-4 4h-6a4 4 0 01-4-4v-13a4 4 0 014-4h6zm-8 4a2 2 0 012-2h.585a1.5 1.5 0 001.415 1h2a1.5 1.5 0 001.415-1H27a2 2 0 012 2v13a2 2 0 01-2 2h-6a2 2 0 01-2-2v-13z" fill="#203686"/></svg>
